X:1
T:Title
%%score { ( 1 4 ) | ( 2 3 ) }
L:1/8
M:4/4
K:G
V:1 treble nm="Grand Piano"
V:4 treble 
V:2 bass 
V:3 bass 
V:1
 z4 z2[Q:1/4=100] D2 | [B,G][B,G][B,G][B,G] [A,F]2 DD | AAAA G4 | BBBB cBAG |[M:3/4] F2 G2 A2 | %5
[M:1/4] DD |[M:4/4] [B,G][B,G][B,G][B,G] [A,F]2 DD | AAAA G2 AB | [Ec][Ec]cc B2 AA | %9
 G2 F2 [B,G]2 z2 | [^DB]>[DB] [DB][DA] [EG]2 E[EG] | [^DB]>[DB] [DB][DA] [EG]4 | %12
 [Fd]>[Fd] [Fd][Fc] [GB]2 G[GB] | [Fd]>[Fd] [Fd][Fc] [GB]4 | [GB][GB][GB][GB] [FA]2 [FA]2 | %15
 z4 F4[K:bass] | EEEE[K:treble] DG[DG][EA] |[M:3/4] [DB]2 [CA]2 [B,G]2 |] %18
V:2
 z4 z2 B,,2 | G,,A,,B,,C, D,2 D,D, | [D,C][E,C][F,C][D,C] [G,B,]4 | %3
 [G,C][G,D][G,D][G,D] ED[K:bass][G,C][G,B,] |[M:3/4] [D,A,]2 [D,B,]2 [D,C]2 |[M:1/4] D,D, | %6
[M:4/4] G,,A,,B,,C, D,2 D,D, | [D,C][E,C][F,C][D,C] [G,B,]2 [G,C][G,D] | %8
 C,D,[E,E][F,E] [G,D]2 [C,C][C,C] | [D,B,]2 [D,A,]2 G,,2 z2 | B,,>B,, B,,B,, E,2 E,E, | %11
 B,,>B,, B,,B,, E,4 | D,>D, D,D, G,2 G,G, | D,>D, D,D, G,4 | G,,A,,B,,C, D,2 D,2 | %15
 [E,E][F,E][G,E][A,E] ^D4 | [C,C][D,C][E,C][F,C] [G,B,][G,B,]B,,C, |[M:3/4] D,2 D,2 G,,2 |] %18
V:3
 x8 | x8 | x8 | z4 G,2[K:bass] z2 |[M:3/4] x6 |[M:1/4] x2 |[M:4/4] x8 | x8 | x8 | x8 | x8 | x8 | %12
 x8 | x8 | x8 | z4 B,2 z2 | x8 |[M:3/4] x6 |] %18
V:4
 x8 | x8 | x8 | x8 |[M:3/4] x6 |[M:1/4] x2 |[M:4/4] x8 | x8 | x8 | x8 | x8 | x8 | x8 | x8 | x8 | %15
 GGGG z2[K:bass] B,,2 | x4[K:treble] x4 |[M:3/4] x6 |] %18

